X: 1
T: Trip To Pakistan, The
M: 4/4
L: 1/8
R: reel
K: Emin
|:EGBE G3 B|A3 B AGFG|EGBE G3 B|AGFG E4:|
|:EGBG c3 A|B3 d AGFG|EGBG c3 A|BAGB A4:|
|:FGBF GBGF|EFGE FGFE|DFAD FADF|AGFG E4:|
|:Bc|~d3e dcBd|c2cA BGGF|EGBG ~c3d|BAGB A2:| GF|EGBE ~G3B |